X: 52
T: No_57_Song_of_the_Horned_Toad_When_Putting_Her_Children_to_Sleep.krn
N: Derived from No_57_Song_of_the_Horned_Toad_When_Putting_Her_Children_to_Sleep.krn
%%abc-version 2.0
%%abcx-abcm2ps-target-version 5.9.1 (29 Sep 2008)
%%abc-creator hum2abc beta
%%abcx-conversion-date 2019/03/15 08:25:35
%%humdrum-veritas 2390555206
%%humdrum-veritas-data 1622540202
%%linebreak <none>
%%barnumbers 0
L: 1/8
M: 2/4
K: G clef=bass
[K:clef=bass][M:2/4]D3E [I:setbarnb 2]| 
ED- DB, | 
B,2A,2 | 
G,E,-E,2- | 
E,4 | 
A,3B, | 
B,A,- A,G, | 
E,2E,2 | 
D,2z2 | 
D,3E, | 
[M:3/4]E,D,- D,D,D,2 | 
[M:2/4]E,D,D,2 | 
[M:3/4]D,4z2 :|]  
[M:2/4]A,3B, | 
B,A,- A,G, | 
E,2E,2 | 
D,2z2 | 
D,3E, | 
[M:3/4]E,D,- D,D,D,2 | 
[M:2/4]E,D,D,2 | 
[M:2/4]D,4 |]  



